packages/core/src/svgs/tokens/branded/TT.svg

<svg width="24" height="24" viewBox="0 0 24 24" fill="none" xmlns="http://www.w3.org/2000/svg">
<path d="M6.68377 20.4683L11.8236 12.3234C11.9001 12.1999 11.8118 12 11.6649 12H7.166C6.80139 12 6.57792 11.6412 6.77199 11.3296L12.3058 2.0085L11.9942 2.00262C9.82517 2.00332 7.71514 2.70942 5.98258 4.01439C4.25003 5.31935 2.98888 7.15238 2.3894 9.23692C1.78994 11.3215 1.88467 13.5444 2.65931 15.5704C3.43395 17.5963 4.84648 19.3155 6.68377 20.4683ZM11.7001 21.9973H11.9942C14.1642 21.9991 16.2758 21.2949 18.0104 19.9909C19.7448 18.6868 21.0081 16.8538 21.6089 14.7687C22.21 12.6835 22.1161 10.4595 21.3418 8.43229C20.5673 6.40513 19.1544 4.685 17.3162 3.53162L12.3822 11.7119C12.3058 11.8413 12.394 12 12.541 12H17.3751C17.7397 12 18.0101 12.4469 17.8161 12.7586L11.6942 21.9914L11.7001 21.9973Z" fill="url(#paint0_linear_364_4980)"/>
<defs>
<linearGradient id="paint0_linear_364_4980" x1="11.9942" y1="2.5907" x2="11.9942" y2="21.4092" gradientUnits="userSpaceOnUse">
<stop stop-color="#06FCD7"/>
<stop offset="1" stop-color="#0502DA"/>
</linearGradient>
</defs>
</svg>

<svg xmlns="http://www.w3.org/2000/svg" width="24" height="24" fill="none" viewBox="0 0 24 24">
    <path fill="url(#TT__a)" d="m6.684 20.468 5.14-8.145c.076-.123-.012-.323-.16-.323H7.167c-.365 0-.588-.359-.394-.67l5.534-9.321-.312-.006a9.998 9.998 0 0 0-5.31 18.465m5.016 1.53h.294a9.998 9.998 0 0 0 5.322-18.466l-4.934 8.18a.188.188 0 0 0 .159.288h4.834c.365 0 .635.447.441.759l-6.122 9.232z"/>
    <defs>
        <linearGradient id="TT__a" x1="11.994" x2="11.994" y1="2.591" y2="21.409" gradientUnits="userSpaceOnUse">
            <stop stop-color="#06FCD7"/>
            <stop offset="1" stop-color="#0502DA"/>
        </linearGradient>
    </defs>
</svg>
